gama.ui.shared/icons_svg/dark/layer/layer.agents.svg

<svg height="24.75" viewBox="-850.358 -3651.197 24.75 24.75" width="24.75" xmlns="http://www.w3.org/2000/svg"><g fill="none"><path d="m-846.1427-3650.8223h16.32c2.12075 0 3.84 1.7193 3.84 3.84v16.32c0 2.1208-1.71925 3.84-3.84 3.84h-16.32c-2.1208 0-3.84-1.7192-3.84-3.84v-16.32c0-2.1207 1.7192-3.84 3.84-3.84z" fill="#4288c4"/><path d="m-841.2877-3639.3833-3.2442 1.67c-.3997.2057-.6508.6173-.6508 1.0669v.6241c0 .6627.5372 1.2 1.2 1.2.2209 0 .4.1791.4.4s-.1791.4-.4.4c-1.1046 0-2-.8954-2-2v-.6241c0-.7491.4186-1.4356 1.0846-1.7782l2.6862-1.3828c-.8573-.7476-1.3708-1.8371-1.3708-3.0149 0-2.2092 1.7908-4 4-4 1.3413 0 2.57055.6655 3.3103 1.754.1242.1827.0768.4313-.1059.5557-.1827.1242-.4315.0766-.5557-.106-.5924-.8714-1.5752-1.4037-2.6487-1.4037-1.7673 0-3.2 1.4327-3.2 3.2 0 1.1293.5894 2.1563 1.5362 2.7341.1886.1152.2482.3612.1332.5497-.0431.0705-.1045.1232-.1744.1552zm3.274 3.4143-3.2656 1.4845c-.4284.1947-.7034.6219-.7034 1.0925v.5697c0 .6627.5372 1.2 1.2 1.2h8.8c.6627 0 1.2-.5373 1.2-1.2v-.5697c0-.4706-.2751-.8978-.7035-1.0925l-3.2655-1.4845c-.4981.223-1.0501.3467-1.631.3467s-1.1329-.1237-1.631-.3467zm-.8313-.5008c-.936-.7322-1.5377-1.8722-1.5377-3.1525 0-2.2092 1.7908-4 4-4 2.2091 0 4 1.7908 4 4 0 1.2803-.6017 2.4203-1.5377 3.1525l2.7653 1.2568c.714.3247 1.1724 1.0367 1.1724 1.821v.5697c0 1.1045-.8955 2-2 2h-8.8c-1.1046 0-2-.8955-2-2v-.5697c0-.7843.4584-1.4963 1.1724-1.821zm2.4623.0475c1.7673 0 3.2-1.4327 3.2-3.2s-1.4327-3.2-3.2-3.2-3.2 1.4327-3.2 3.2 1.4327 3.2 3.2 3.2z" fill="#fff"/></g></svg>

<?xml version="1.0" encoding="UTF-8" standalone="no"?>
<!DOCTYPE svg PUBLIC "-//W3C//DTD SVG 1.1//EN" "http://www.w3.org/Graphics/SVG/1.1/DTD/svg11.dtd">
<svg xmlns="http://www.w3.org/2000/svg" xmlns:xl="http://www.w3.org/1999/xlink" version="1.1" xmlns:dc="http://purl.org/dc/elements/1.1/" viewBox="-850.3577 -3651.1973 24.75 24.75" width="24.75" height="24.75">
  <defs/>
  <g id="SOURCES" stroke-opacity="1" fill="none" stroke="none" fill-opacity="1" stroke-dasharray="none">
    <title>SOURCES</title>
    <g id="SOURCES_Dark">
      <title>Dark</title>
      <g id="Graphic_11593">
        <title>views/view.other</title>
        <path d="M -846.1427 -3650.8223 L -829.8227 -3650.8223 C -827.70195 -3650.8223 -825.9827 -3649.103 -825.9827 -3646.9823 L -825.9827 -3630.6623 C -825.9827 -3628.5415 -827.70195 -3626.8223 -829.8227 -3626.8223 L -846.1427 -3626.8223 C -848.2635 -3626.8223 -849.9827 -3628.5415 -849.9827 -3630.6623 L -849.9827 -3646.9823 C -849.9827 -3649.103 -848.2635 -3650.8223 -846.1427 -3650.8223 Z" fill="#4288c4"/>
      </g>
      <g id="Graphic_11592">
        <path d="M -841.2877 -3639.3833 L -844.5319 -3637.7133 C -844.9316 -3637.5076 -845.1827 -3637.096 -845.1827 -3636.6464 L -845.1827 -3636.0223 C -845.1827 -3635.3596 -844.6455 -3634.8223 -843.9827 -3634.8223 C -843.7618 -3634.8223 -843.5827 -3634.6432 -843.5827 -3634.4223 C -843.5827 -3634.2014 -843.7618 -3634.0223 -843.9827 -3634.0223 C -845.0873 -3634.0223 -845.9827 -3634.9177 -845.9827 -3636.0223 L -845.9827 -3636.6464 C -845.9827 -3637.3955 -845.5641 -3638.082 -844.8981 -3638.4246 L -842.2119 -3639.8074 C -843.0692 -3640.555 -843.5827 -3641.6445 -843.5827 -3642.8223 C -843.5827 -3645.0315 -841.7919 -3646.8223 -839.5827 -3646.8223 C -838.2414 -3646.8223 -837.01215 -3646.1568 -836.2724 -3645.0683 C -836.1482 -3644.8856 -836.1956 -3644.637 -836.3783 -3644.5126 C -836.561 -3644.3884 -836.8098 -3644.436 -836.934 -3644.6186 C -837.5264 -3645.49 -838.5092 -3646.0223 -839.5827 -3646.0223 C -841.35 -3646.0223 -842.7827 -3644.5896 -842.7827 -3642.8223 C -842.7827 -3641.693 -842.1933 -3640.666 -841.2465 -3640.0882 C -841.0579 -3639.973 -840.9983 -3639.727 -841.1133 -3639.5385 C -841.1564 -3639.468 -841.2178 -3639.4153 -841.2877 -3639.3833 Z M -838.0137 -3635.969 L -841.2793 -3634.4845 C -841.7077 -3634.2898 -841.9827 -3633.8626 -841.9827 -3633.392 L -841.9827 -3632.8223 C -841.9827 -3632.1596 -841.4455 -3631.6223 -840.7827 -3631.6223 L -831.9827 -3631.6223 C -831.32 -3631.6223 -830.7827 -3632.1596 -830.7827 -3632.8223 L -830.7827 -3633.392 C -830.7827 -3633.8626 -831.0578 -3634.2898 -831.4862 -3634.4845 L -834.7517 -3635.969 C -835.2498 -3635.746 -835.8018 -3635.6223 -836.3827 -3635.6223 C -836.9636 -3635.6223 -837.5156 -3635.746 -838.0137 -3635.969 Z M -838.845 -3636.4698 C -839.781 -3637.202 -840.3827 -3638.342 -840.3827 -3639.6223 C -840.3827 -3641.8315 -838.5919 -3643.6223 -836.3827 -3643.6223 C -834.1736 -3643.6223 -832.3827 -3641.8315 -832.3827 -3639.6223 C -832.3827 -3638.342 -832.9844 -3637.202 -833.9204 -3636.4698 L -831.1551 -3635.213 C -830.4411 -3634.8883 -829.9827 -3634.1763 -829.9827 -3633.392 L -829.9827 -3632.8223 C -829.9827 -3631.7178 -830.8782 -3630.8223 -831.9827 -3630.8223 L -840.7827 -3630.8223 C -841.8873 -3630.8223 -842.7827 -3631.7178 -842.7827 -3632.8223 L -842.7827 -3633.392 C -842.7827 -3634.1763 -842.3243 -3634.8883 -841.6103 -3635.213 L -838.845 -3636.4698 Z M -836.3827 -3636.4223 C -834.6154 -3636.4223 -833.1827 -3637.855 -833.1827 -3639.6223 C -833.1827 -3641.3896 -834.6154 -3642.8223 -836.3827 -3642.8223 C -838.15 -3642.8223 -839.5827 -3641.3896 -839.5827 -3639.6223 C -839.5827 -3637.855 -838.15 -3636.4223 -836.3827 -3636.4223 Z" fill="white"/>
      </g>
    </g>
  </g>
</svg>
